X:1
T:Bruyères
T:Bruyères
T:Préludes, Livre 2
T:Claude Debussy
C:Claude Debussy
%%score { ( 1 4 ) | ( 2 5 6 ) | ( 3 7 ) }
L:1/8
Q:1/4=66
M:3/4
K:Ab
V:1 treble nm="Piano" snm="Pno."
V:4 treble 
V:2 bass 
V:5 bass 
V:6 bass 
V:3 bass 
V:7 bass 
V:1
"^Calme, doucement expressif" z2 z2 z!p! (e | cB/c/ GB Fe | !breath!c4)!>(! (cB/c/!>)! | %3
 E4)!>(! (cB/c/!>)! | [CE]4) z2 |"_m.d."!p! (C>E [DF][CEA] [D_GB][FAdf]) | (C>E!<(! Fd Bf)!<)! | %7
!mf! (a(3g/f/e/ d/c/B/A/ B/A/G/F/ |!p!"_m.d." [CE]4) (!arpeggio!.F/.A/.B/.e/) | [CE]6 | %10
!mf! (e'(3d'/c'/b/ c'/b/a/g/ a/g/f/e/-) | e(3d/c/B/ c/B/A/G/- G/F/E/D/- | %12
!p!!>(! [DE]4!>)! [A,DF]2 | [A,CA]4!p!!<(! (B/4e/4f/4b/4.e'/4)!<)! z/4!>(! (3(a/4e/4B/4)!>)! | %14
 !tenuto!F-(F/4B/4e/4c/4 G2)!p!!<(! (B/4e/4f/4b/4.e'/4)!<)! z/4!>(! (3(a/4e/4B/4)!>)! | %15
[M:5/4] !tenuto!F-(F/4B/4e/4c/4 G2)!p! !tenuto!F-(F/4B/4e/4c/4!>(! [=DG]2 [B,E]2-)!>)! | %16
[M:3/4] [B,E]2- [B,E-](E/4D/4E/4F/4[I:staff +1] C/B,/C/D/ | ED E2 F2) | %18
!pp!"_doux et léger"[I:staff -1] (f-f/4b/4e'/4c'/4) (e-e/4a/4d'/4b/4) (d-d/4_g/4c'/4a/4) | %19
 (c-c/4f/4b/4_g/4 B2- B/4A/4_G/4A/4B/4c/4d/4e/4) | %20
!p! (f-f/4b/4e'/4c'/4)!<(! (e-e/4a/4d'/4__b/4) (_g-g/4c'/4f'/4d'/4) | %21
 (b-b/4e'/4a'/4f'/4!<)! b2-!>(! b/4a/4f/4e/4B/4A/4E/4A/4)!>)! || %22
[K:Bb]!p!"_joyeux"[Q:1/4=72]"^Un peu animé" (B2 f2- f(3e/d/c/ | B/c/B/F/ E/F/E/C/) x2 | %24
!p!!<(! (B2 f2-)!<)! f(3(d/e/f/ |!>(! b/c'/b/f/ e/f/e/B/ F/)!>)! z/ (3(d/e/f/ | %26
!<(! b/c'/b/f/ e/f/e/c/ B/c/e/f/) | (b/c'/b/f/ e/f/e/c/ B/!<)!c/B/E/) | %28
!p!!<(! [B,D]2!<)!!p!"_doux" z z/ (3(c'/4d'/4=e'/4 c'/=e/c/A/) | %29
 z z/!<(![I:staff +1] (3(C/4D/4=E/4[I:staff -1] A/c/d/=e/)!<)! z/!>(! (C/D/=E/)!>)! | %30
!p!!<(! [EG]2!<)!!p!"_doux" z z/ (3(f'/4g'/4a'/4 f'/a/f/d/) | %31
 z z/!<(![I:staff +1] (3(F/4G/4A/4[I:staff -1] d/f/g/a/)!<)! z2 |!p!!<(! (B2!<)! f2- f(3e/d/c/ | %33
 B/c/B/F/ E/F/E/C/) x2 |!p! (B2 f2-) f(3(d/e/f/ | b/!>(!c'/b/f/ e/f/e/B/ F/)!>)! z/ (3(d/e/f/ | %36
"^Cédez" b/c'/b/f/ e/f/e/c/) (B/c/B/F/) || %37
[K:Ab]!mf![Q:1/4=66]"^au Mouvt" (a(3g/f/e/ d/c/B/A/ B/A/G/F/ |"_m.d." [CE]4) (.F/.A/.B/.e/) | %39
 [CE]6 |!mf! x6 | x6 |!p!!>(! x4!>)! z2 |!p! z2 z2 z"^doux" (e' | c'b/c'/ gb fe' | %45
 c'2- c') z z[Q:1/4=60]"^En retenant"!>(! (B/c/ | E4)!>)! z2 | !tenuto!c2 z!p!!>(! (.B2 .c)!>)! | %48
!pp! [CE]6 | x6 | x6 |] %51
V:2
 z6 | z6 | z6 | (A,G, F,4-) | F,G,/F,/ E,2 z2 | x6 | x6 |"_m.g." (E2 =E2 [DF]2) | x6 | x4 x2 | %10
[K:treble]"_m.g." ([G,G]2 [F,F]4) | ([G,G]2 [F,F]2 [C-c]2) | %12
 (C[I:staff +1](3B,/A,/G,/ A,/G,/F,/E,/- E,2- | %13
[I:staff -1][K:bass][I:staff +1] E,4)[I:staff -1] ([D,A,]2 | [A,,E,]4) ([D,A,]2 | %15
[M:5/4] [A,,E,]4) A,2- A,2 G,2- |[M:3/4] G,2- G, z z2 | z6 |[K:treble] [_GB]6 | [_GB]6 | %20
 ([C_GB]2 [DG__B]2 [EBd]2 | [_GBce]2 [FABd]2 [EGAB]2) ||[K:Bb][K:bass] ([B,,F,]4 F,2 | [G,B,EF]6) | %24
 x6 | z6 | z6 | z6 |[K:treble][I:staff -1] G,[I:staff +1]=E/>G/[I:staff -1] [Ac=ea]4 | %29
[I:staff +1] x6 |[I:staff -1] C[I:staff +1]A/>c/[I:staff -1] [dfad']4 |[I:staff +1] x6 | %32
[K:bass] z4 (F,2 | [_G,B,EF]6) | x6 | ([_G,B,EF]4 [F,B,D]2) | [EF]4- ([EF][_DG] || %37
[K:Ab]"_m.g." ([C-E]2) [C=E]2 [DF]2) | x6 | x4 x2 |[K:treble]"_m.g." ([G,G]2 [F,F]4) | %41
 ([G,G]2 [F,F]2 [C-c]2) | (C[I:staff +1](3B,/A,/G,/ A,/G,/F,/E,/- E,/D,/C,/B,,/) |[I:staff -1] z6 | %44
 z6 | z2 ([=E,=E]2 [F,F]2 | [^F,^F]4 [G,B,DG]2- | [G,B,DG]2 .[F,A,DF]2 .[E,G,DE]2) | %48
[K:bass] x4 x!>(! x!>)! |!pp![I:staff -1] [CE]6- | [CE]2[I:staff +1] z2 z2 |] %51
V:3
 z6 | z6 | z6 | z6 | z2 z2 ([A,,,A,,][B,,,B,,]) | %5
 ([C,,C,]2 [B,,,B,,][A,,,A,,] [_G,,,_G,,][D,,,D,,]) | ([C,,C,]2 [B,,,B,,]2 E,,,2) |{/A,,,-} A,,,6 | %8
 ([A,,E,]4 !arpeggio![D,,A,,D,]2) | [A,,E,]6 |{/[B,,,B,,]-} [B,,,B,,]6- | [B,,,B,,]4 z2 | %12
 x4 E,/D,/C,/B,,/ | A,,4 z2 | z6 |[M:5/4] z4 (F,,2 B,,,2 E,,2- |[M:3/4] E,,2- E,,) z z2 | z6 | z6 | %19
 z6 | A,6- | A,6 ||[K:Bb] (F,,B,,,-) B,,,2 z2 | z6 | (F,,B,,,-) B,,,2 z2 | ([G,B,EF]4 [F,B,D]2) | %26
[K:treble] ([A,A]2 [G,G]2 [Dd]2 | [Cc]2 [A,A]2 [G,G]2) |[K:bass] [C,,G,,=E,]6 | z6 | [F,,C,A,]6 | %31
 x4 z/!>(! (.F,,/.G,,/.A,,/)!>)! | (F,,B,,,-) B,,,2 z2 | z6 | (F,,B,,,-) B,,,2 z2 | z6 | z6 || %37
[K:Ab]{/A,,,-} A,,,6 | ([A,,E,]4 !arpeggio![D,,A,,D,]2) | [A,,E,]6 |{/[B,,,B,,]-} [B,,,B,,]6- | %41
 [B,,,B,,]4 z2 | x4 x2 |{/[A,,F,]-} [A,,-F,]6 | A,,6 | z6 | z2 E,,4- | E,,6 | %48
"_sans lourdeur" E,,6 | E,,6- | E,,2 z2 z2 |] %51
V:4
 x6 | x6 | x6 | D6 | x6 |[I:staff +1] [E,G,]2 [F,B,]A, B, x | ([E,G,]2 [F,B,D]4) | %7
[I:staff -1] [Ac]2 x4 |[I:staff +1] (B,(3A,/B,/C/ D/C/B,/A,/) !arpeggio!!tenuto![F,B,D]2 | %9
 (B,(3A,/B,/C/!<(![I:staff -1] D/C/D/E/ F/E/F/G/)!<)! | x6 | x6 | x6 | x4 F2 | C4 F2 | %15
[M:5/4] C4 C2 x4 |[M:3/4] x6 | x6 | f z e z d z | c2 x4 | f z e z _g z | b2 x4 ||[K:Bb] [B,DF]6 | %23
 x6 | [B,DF]6 | x6 | x6 | x6 | x6 | x6 | x6 | x6 | [B,DF]6 | x6 | [B,DF]6 | x6 | x6 || %37
[K:Ab] [Ac]6 |[I:staff +1] (B,(3A,/B,/C/ D/C/B,/A,/) !arpeggio!!tenuto![F,B,D]2 | %39
 (B,(3A,/B,/C/!<(![I:staff -1] D/C/D/E/ F/E/F/G/)!<)! | (e'(3d'/c'/b/ c'/b/a/g/ a/g/f/e/-) | %41
 (e(3d/c/B/ c/B/A/G/- G/F/E/D/-) | [DE]4 [F,B,F]2 | [A,DFA]6- | [A,DFA]6 | x6 | x6 | x6 | %48
[I:staff +1] E,6 | x6 | x6 |] %51
V:5
 x6 | x6 | x6 | B,,4 (E,,2 | A,,4) x2 | x6 | x6 | [E,A,C]4 x2 | x6 | x6 |[K:treble] [A,B,D]6 | %11
 [A,B,D]4 x2 | x2 x2 x2 |[K:bass] x6 | x6 |[M:5/4] x4 B,,2- B,,4- |[M:3/4] B,,2- B,, x3 | x6 | %18
[K:treble] (C4 D2) | (E4 D2) | x6 | x6 ||[K:Bb][K:bass] x6 | x11/2"_m.g." (F,/ | (B,,4) F,2) | x6 | %26
 x6 | x6 |[K:treble] x2 [B,C=E]4 | x6 | x2 [EFA]4 | x6 |[K:bass] x6 | x11/2 (F,/ | (B,,4) F,2) | %35
 x6 | ([_G,B,]4 [=G,B,]2) ||[K:Ab] [E,A,]4 x2 | x6 | x6 |[K:treble] [A,B,D]6 | [A,B,D]4 x2 | %42
 x2 x2 x2 | x6 | x6 | x2 [A,D]4 | [A,B,D]4 x2 | x6 |[K:bass] x5 (G,/B,/ | [E,A,]6-) | [E,A,]2 x4 |] %51
V:6
 x6 | x6 | x6 | x6 | x6 | x6 | x6 | x6 | x6 | x6 |[K:treble] x6 | x6 | x6 |[K:bass] x6 | x6 | %15
[M:5/4] x10 |[M:3/4] x6 | x6 |[K:treble] x6 | x6 | x6 | x6 ||[K:Bb][K:bass] x6 | x4 (B,/C/B,/F,/- | %24
 F,4) x2 | x6 | x6 | x6 |[K:treble] x6 | x6 | x6 | x6 |[K:bass] x6 | x4 (B,/C/B,/F,/- | F,4) x2 | %35
 x6 | x6 ||[K:Ab] x6 | x6 | x6 |[K:treble] x6 | x6 | x6 | x6 | x6 | x6 | x6 | x6 |[K:bass] x6 | %49
 x6 | x6 |] %51
V:7
 x6 | x6 | x6 | x6 | x6 | x6 | x6 | x6 | x6 | x6 | x6 | x6 | x6 | x6 | x6 |[M:5/4] x10 | %16
[M:3/4] x6 | x6 | x6 | x6 | x6 | x6 ||[K:Bb] x6 | x6 | x6 | x6 |[K:treble] [B,CE]4 [EG]2- | %27
 [EG]2 [B,CE]4 |[K:bass] x6 | x6 | x6 | x6 | x6 | x6 | x6 | x6 | x6 ||[K:Ab] x6 | x6 | x6 | x6 | %41
 x6 | x6 | D,,6- | D,,6 | x6 | x6 | x6 | %48
 (3(!tenuto!B,,,/4A,,,/4G,,,/4A,,,3/2) (3(!tenuto!B,,,/4A,,,/4G,,,/4A,,,3/2-) (A,,,G,,,/B,,,/ | %49
 A,,,6-) | A,,,2 x4 |] %51

